assets/Beverage box/Flat/beverage_box_flat.svg

<svg width="32" height="32" viewBox="0 0 32 32" fill="none" xmlns="http://www.w3.org/2000/svg">
<path d="M7 26V7H7.26491L17.9432 10.8584L18 11L18.1273 11.1847V29.7965L18 30L7 26Z" fill="#86D72F"/>
<path d="M7 7L14 5L25 9V28L18 30V11L7 7Z" fill="#C3EF3C"/>
<path d="M21.5 12.5L18 11L25 9L23 12C22.6562 12.5402 22.2617 12.8032 21.5 12.5Z" fill="#D3F093"/>
<path d="M11.57 12.75C12.19 12.97 12.75 13.63 13.04 14.47L13.23 15.02C12.95 15.01 12.79 14.95 12.75 14.94C12.7 14.92 12.42 14.81 11.97 14.45C11.8 14.31 11.57 14.17 11.31 14.08C11.03 13.98 10.71 13.93 10.39 13.99C10.19 13.66 10.03 13.28 9.96001 12.87L9.82001 12.12L11.57 12.75Z" fill="#008463"/>
<path d="M14.3162 2.05132C14.0113 1.94967 13.6761 2.00081 13.4153 2.18877C13.1545 2.37672 13 2.67856 13 3.00001V6.50001C13 6.50001 13.5 6.75001 14 6.75001C14.5 6.75001 15 6.50001 15 6.50001V4.38743L16.6838 4.94869C17.2077 5.12334 17.774 4.84018 17.9487 4.31624C18.1233 3.79229 17.8402 3.22597 17.3162 3.05132L14.3162 2.05132Z" fill="#F8312F"/>
<path d="M16.28 17.5C15.67 16.01 14.84 15.35 14.19 15.12C13.93 15.03 13.7 15 13.54 15.01C13.43 15.02 13.33 15.02 13.24 15.02C12.96 15.01 12.79 14.96 12.75 14.94C12.7461 14.938 12.7398 14.9352 12.7313 14.9313C12.6533 14.896 12.3857 14.7746 11.98 14.45C11.81 14.31 11.58 14.17 11.32 14.08C11.04 13.98 10.72 13.93 10.4 13.99C9.98 14.07 9.55 14.34 9.18 14.93C8.18999 16.5 8.70999 20.04 9.76999 21.74C10.23 22.46 10.66 22.78 11.08 22.93C11.3615 23.0343 11.6376 23.0597 11.9039 23.0843C12.1486 23.1068 12.385 23.1286 12.61 23.21C12.8439 23.2928 13.0825 23.4445 13.3294 23.6014C13.5891 23.7666 13.858 23.9375 14.14 24.04C14.56 24.19 15 24.19 15.47 23.8C16.57 22.89 17.2 19.76 16.28 17.5Z" fill="#F8312F"/>
<path d="M17.1402 2.99263L17.3162 3.05132C17.8402 3.22597 18.1233 3.79229 17.9487 4.31623C17.8175 4.70984 17.4652 4.96755 17.076 4.99737C16.6208 4.95987 16.2617 4.52601 16.2617 3.99632C16.2617 3.442 16.6551 2.99263 17.1402 2.99263C17.1401 2.99263 17.1402 2.99263 17.1402 2.99263Z" fill="#990838"/>
</svg>

<svg xmlns="http://www.w3.org/2000/svg" width="32" height="32" fill="none"><path fill="#86D72F" d="M7 26V7h.265l10.678 3.858L18 11l.127.185v18.611L18 30 7 26Z"/><path fill="#C3EF3C" d="m7 7 7-2 11 4v19l-7 2V11L7 7Z"/><path fill="#D3F093" d="M21.5 12.5 18 11l7-2-2 3c-.344.54-.738.803-1.5.5Z"/><path fill="#008463" d="M11.57 12.75c.62.22 1.18.88 1.47 1.72l.19.55c-.28-.01-.44-.07-.48-.08-.05-.02-.33-.13-.78-.49-.17-.14-.4-.28-.66-.37-.28-.1-.6-.15-.92-.09-.2-.33-.36-.71-.43-1.12l-.14-.75 1.75.63Z"/><path fill="#F8312F" d="M14.316 2.051A1 1 0 0 0 13 3v3.5s.5.25 1 .25 1-.25 1-.25V4.387l1.684.562a1 1 0 0 0 .632-1.898l-3-1ZM16.28 17.5c-.61-1.49-1.44-2.15-2.09-2.38-.26-.09-.49-.12-.65-.11-.11.01-.21.01-.3.01-.28-.01-.45-.06-.49-.08l-.019-.009c-.078-.035-.345-.156-.751-.481-.17-.14-.4-.28-.66-.37-.28-.1-.6-.15-.92-.09-.42.08-.85.35-1.22.94-.99 1.57-.47 5.11.59 6.81.46.72.89 1.04 1.31 1.19.281.104.558.13.824.154.245.023.481.045.706.126.234.083.473.235.72.391.26.166.528.337.81.439.42.15.86.15 1.33-.24 1.1-.91 1.73-4.04.81-6.3Z"/><path fill="#990838" d="m17.14 2.993.176.058a1 1 0 0 1-.24 1.946c-.455-.037-.814-.471-.814-1 0-.555.393-1.004.878-1.004Z"/></svg>
